static/assets/images/networks/abstract.svg

<svg width="256" height="256" viewBox="0 0 256 256" fill="none" xmlns="http://www.w3.org/2000/svg">
<path d="M128 256C198.692 256 256 198.692 256 128C256 57.3075 198.692 0 128 0C57.3075 0 0 57.3075 0 128C0 198.692 57.3075 256 128 256Z" fill="#15D17A"/>
<path d="M193.5 190.393L157.039 155H99.4616L63 190.393L80.1083 207L116.57 171.607C119.696 168.573 123.817 166.917 128.25 166.917C132.684 166.917 136.804 168.573 139.93 171.607L176.392 207L193.5 190.393Z" fill="white"/>
<path d="M163.195 144.524L212.774 157.5L219 134.731L169.42 121.755C165.176 120.649 161.638 117.993 159.431 114.258C157.224 110.55 156.658 106.207 157.79 102.057L171.062 53.5865L147.772 47.5L134.5 95.9707L163.167 144.497L163.195 144.524Z" fill="white"/>
<path d="M43.7257 157.5L93.3052 144.524L93.3335 144.497L122 95.9707L108.728 47.5L85.4381 53.5865L98.7103 102.057C99.8422 106.207 99.2762 110.55 97.069 114.258C94.8616 117.993 91.3243 120.649 87.0795 121.755L37.5 134.731L43.7257 157.5Z" fill="white"/>
</svg>

<svg xmlns="http://www.w3.org/2000/svg" fill="none" viewBox="0 0 256 256"><path fill="#15D17A" d="M128 256c70.692 0 128-57.308 128-128S198.692 0 128 0 0 57.308 0 128s57.308 128 128 128"/><path fill="#fff" d="M193.5 190.393 157.039 155H99.462L63 190.393 80.108 207l36.462-35.393c3.126-3.034 7.247-4.69 11.68-4.69 4.434 0 8.554 1.656 11.68 4.69L176.392 207zm-30.305-45.869 49.579 12.976L219 134.731l-49.58-12.976c-4.244-1.106-7.782-3.762-9.989-7.497-2.207-3.708-2.773-8.051-1.641-12.201l13.272-48.47-23.29-6.087L134.5 95.97l28.667 48.527zM43.726 157.5l49.58-12.976.028-.027L122 95.971 108.728 47.5l-23.29 6.087 13.272 48.47c1.132 4.15.566 8.493-1.641 12.201-2.207 3.735-5.745 6.391-9.99 7.497L37.5 134.731z"/></svg>
